src/images/icon-form-name.svg

<svg width="24" height="28" viewBox="0 0 24 28" fill="none" xmlns="http://www.w3.org/2000/svg">
<path d="M11.8069 15.0872C11.8359 15.0872 11.8649 15.0872 11.8997 15.0872C11.9113 15.0872 11.9229 15.0872 11.9345 15.0872C11.9519 15.0872 11.9751 15.0872 11.9925 15.0872C13.6914 15.0582 15.0656 14.461 16.0803 13.3187C18.3126 10.8022 17.9415 6.4883 17.9009 6.07662C17.756 2.98613 16.2948 1.50756 15.0888 0.817561C14.19 0.301512 13.1405 0.0231932 11.9693 0H11.9287C11.9229 0 11.9113 0 11.9055 0H11.8707C11.2271 0 9.96307 0.104369 8.75122 0.794367C7.53358 1.48437 6.04921 2.96293 5.90425 6.07662C5.86367 6.4883 5.49257 10.8022 7.72492 13.3187C8.73383 14.461 10.108 15.0582 11.8069 15.0872ZM7.4524 6.22158C7.4524 6.20418 7.4582 6.18679 7.4582 6.17519C7.64954 2.01781 10.6009 1.57134 11.8649 1.57134H11.8881C11.8997 1.57134 11.9171 1.57134 11.9345 1.57134C13.5 1.60613 16.1615 2.24394 16.3412 6.17519C16.3412 6.19259 16.3412 6.20998 16.347 6.22158C16.3528 6.26217 16.7587 10.205 14.9148 12.2808C14.1842 13.1042 13.2101 13.51 11.9287 13.5216C11.9171 13.5216 11.9113 13.5216 11.8997 13.5216C11.8881 13.5216 11.8823 13.5216 11.8707 13.5216C10.5951 13.51 9.61517 13.1042 8.89038 12.2808C7.05232 10.2166 7.4466 6.25637 7.4524 6.22158Z" fill="#404266"/>
<path d="M23.8152 22.2424C23.8152 22.2366 23.8152 22.2308 23.8152 22.225C23.8152 22.1786 23.8094 22.1322 23.8094 22.08C23.7746 20.9319 23.6992 18.2473 21.1828 17.3892C21.1654 17.3834 21.1422 17.3776 21.1248 17.3718C18.5098 16.705 16.3354 15.1974 16.3122 15.18C15.9585 14.9307 15.4714 15.0177 15.2221 15.3714C14.9728 15.7251 15.0598 16.2121 15.4135 16.4614C15.512 16.531 17.8198 18.1372 20.7073 18.8793C22.0583 19.3606 22.2091 20.8044 22.2497 22.1264C22.2497 22.1786 22.2497 22.225 22.2555 22.2713C22.2613 22.7932 22.2265 23.5992 22.1337 24.063C21.1944 24.5965 17.5125 26.4403 11.9113 26.4403C6.33332 26.4403 2.62821 24.5907 1.68309 24.0572C1.59031 23.5934 1.54972 22.7874 1.56132 22.2655C1.56132 22.2192 1.56712 22.1728 1.56712 22.1206C1.60771 20.7986 1.75846 19.3548 3.10947 18.8735C5.99702 18.1314 8.30475 16.5194 8.40332 16.4556C8.75702 16.2063 8.84399 15.7193 8.59466 15.3656C8.34534 15.0119 7.85828 14.9249 7.50458 15.1742C7.48139 15.1916 5.31862 16.6992 2.69199 17.366C2.6688 17.3718 2.6514 17.3776 2.63401 17.3834C0.117544 18.2473 0.0421663 20.9319 0.00737653 22.0742C0.00737653 22.1264 0.00737639 22.1728 0.00157809 22.2192C0.00157809 22.225 0.00157809 22.2308 0.00157809 22.2366C-0.00422021 22.5381 -0.0100184 24.0862 0.297292 24.8632C0.355275 25.0139 0.459644 25.1415 0.598803 25.2285C0.772752 25.3444 4.94173 28.0001 11.9171 28.0001C18.8924 28.0001 23.0614 25.3386 23.2354 25.2285C23.3687 25.1415 23.4789 25.0139 23.5369 24.8632C23.8268 24.092 23.821 22.5439 23.8152 22.2424Z" fill="#404266"/>
</svg>

<svg xmlns="http://www.w3.org/2000/svg" width="24" height="28" fill="none"><path fill="#404266" d="M11.8 15.1c.04 0 .06 0 .1 0 0 0 .02 0 .03 0 .02 0 .05 0 .06 0 1.7-.04 3.07-.64 4.08-1.78 2.23-2.52 1.86-6.83 1.82-7.24-.14-3.1-1.6-4.57-2.8-5.26-.9-.52-1.96-.8-3.13-.82h-.04s-.02 0-.02 0h-.03c-.64 0-1.9.1-3.12.8-1.22.68-2.7 2.16-2.85 5.28-.04.4-.4 4.72 1.82 7.24 1 1.14 2.4 1.74 4.1 1.77zM7.46 6.2c0-.02 0-.03 0-.04.2-4.16 3.15-4.6 4.4-4.6h.04s.02 0 .03 0c1.57.03 4.23.66 4.4 4.6 0 0 0 .03.02.04 0 .04.4 4-1.44 6.06-.72.82-1.7 1.23-2.97 1.24 0 0-.02 0-.03 0 0 0-.02 0-.03 0-1.27 0-2.25-.42-2.98-1.24-1.85-2.06-1.45-6.02-1.45-6.06zM23.82 22.24c0-.06 0-.1 0-.16-.05-1.15-.12-3.83-2.64-4.7 0 0-.04 0-.06 0-2.6-.68-4.78-2.18-4.8-2.2-.36-.25-.85-.16-1.1.2-.25.35-.16.83.2 1.08.1.07 2.4 1.68 5.3 2.42 1.34.48 1.5 1.92 1.53 3.25 0 .05 0 .1 0 .14 0 .52-.02 1.33-.12 1.8-.94.53-4.62 2.37-10.22 2.37-5.57 0-9.27-1.85-10.22-2.38-.1-.47-.13-1.27-.12-1.8 0-.04 0-.1 0-.14.05-1.32.2-2.77 1.55-3.25 2.9-.74 5.2-2.35 5.3-2.4.36-.26.44-.75.2-1.1-.25-.36-.74-.45-1.1-.2-.02.02-2.18 1.53-4.8 2.2-.03 0-.05 0-.07 0-2.5.88-2.6 3.56-2.62 4.7 0 .06 0 .1 0 .15 0 0 0 0 0 .02 0 .3 0 1.85.3 2.62.06.15.16.28.3.37.17.1 4.34 2.77 11.32 2.77 6.97 0 11.14-2.66 11.32-2.77.13-.1.24-.22.3-.37.3-.77.28-2.32.28-2.62z"/></svg>
